X:1
T:91CcontrapuntoProlon­gadoB
T:
I:linebreak !
L:1/4
K:Cmaj
V:1 clef=treble
e4|d2|"a"e4|f2|"b"e4|f2|
V:2 clef=treble
Gedc|B2|BAcB|A2|BAcB|A2|
V:3 clef=bass
G,2 C,2|D,2|G,2 C,2|D2|G,2 C,2|D,2|
W:el salto desde Sol en hacia el do en el bajo es bueno.  
W:Aunque este movi­mientoparezca constituir visualmente un salto hacia una disonancia. 
W:Realmente, el re de la voz media se introduce como una nota de paso acen­
W:tuada entre las consonancias mi y do, y de este modo, el salto hacia el do
W:en el bajo se escucha en relación con la consonancia do del cuarto tiem­po. 
W:
W:Contrariamente, el salto hacía do en el compas3 no es bueno, aun­
W:que el bajo efectúe un salto hacia el acorde consonante do-do-mi. La figu­
W:ra en la voz media solamente puede ser comprendida como una bordadu­
W:ra superior e inferior de la nota s i (y solamente en este sentido quedará
W:claro el significado de la nota la). Por lo tanto, y de acuerdo con esto, 
W:el salto hacia do se produce eo relación con un acorde disonante do-si-mi, 
W:y no es bueno.